X: 316
T: Beyâtî-Arabân Sazsemâîsi
C: Rauf Yektâ
O: Turkey
F: http://compmusic.upf.edu/node/140
N: beyati-araban--sazsemaisi--aksaksemai----rauf_yekta
N: makam= beyati-araban
N: form= sazsemaisi
N: usul= aksaksemai = 10/8
M: 10/8
L: 1/16
K: C _1/4B _7/8e ^f 
Q: 1/4=120
%%MIDI tuningsystem comma53
a4 _b2a2 {b}agf2 g2a4g2  | a2_b2 c'2b2 a2g2 f2g6  | \
w:  1. HANE  |   | 
g4 fga6 ga_b2 a2g2  | 
w:   | 
f3c' _b2a2 g2f2 e2d4z2  | d4 cBA4fg a2g2 f2e2  | \
w:   |  TESLİM  | 
dcBc d2=e2 d2c2 BAG4z2  | 
w:   | 
G4 =f2=ef efg2 a2g2 f2e2  | d4 c2Bc Bc{e}d2 cBA4z2  | 
w:   |   | 
A4 cd=e4e2 d2ed c2d2  | c4 B2A4d=e fga4z2  | \
w:  2. HANE  |   | 
agfg a2_b4b2 a2ag abg2  | 
w:   | 
g4 f2gf gaf2 e2d4z2  | d4 cBA4fg a2g2 f2e2  | \
w:   |  TESLİM  | 
dcBc d2=e2 d2c2 BAG4z2  | 
w:   | 
G4 =f2=ef efg2 a2g2 f2e2  | d4 c2Bc Bc{e}d2 cBA4z2  | 
w:   |   | 
A4 =e2=f4f2 g2a_b a2g2  | g4 =f2f2 =e2f2 g2ef e2d2  | \
w:  3. HANE  |   | 
=e2=f2 g2e2 d2e2 c2de d2e2  | 
w:   | 
d2c2 B2A2 G2B2 c2d4z2  | d4 cBA4fg a2g2 f2e2  | \
w:   |  TESLİM  | 
dcBc d2=e2 d2c2 BAG4z2  | 
w:   | 
G4 =f2=ef efg2 a2g2 f2e2  | d4 c2Bc Bc{e}d2 cBA4z2  | 
w:   |   | 
z12  | a2g2f2g2a2_b2  | a2g2f2e2d3c  | d2e2f2g2a2_b2  | \
w:  |  4. HANE  |   |   | 
agf2g2a4z2  | 
w:   | 
agfga_bc'2b2a2  | _bagfgab2a2g2  | gfedefg2f2e2  | 
w:   |   |   | 
d2c2B2c4z2  | c4Bcd6  | =edc2B2A4z2  | =e4d2cde4  | \
w:   |   |   |   | 
g4fga2=e4  | 
w:   | 
a4g2fga2b2  | c'bag=f=ed2c2B2  | cdc2B2c2d4  | 
w:   |   |   | 
A12  | z20  | d4 cBA4fg a2g2 f2e2  | dcBc d2=e2 d2c2 BAG4z2  | 
w:   |  |  TESLİM  |   | 
G4 =f2=ef efg2 a2g2 f2e2  | d4 c2Bc Bc{e}d2 cBA4z2  | 
w:   |   | 
|


